X: 1
T: John O'Dwyer Of The Glen
M: 3/4
L: 1/8
R: waltz
K: Dmix
GA |: B4 c2 | d4 c2 | AB- B2- B2- | B2 (3ABA GF |G4 F2 | G4 F2 |G2 A4- | A4 DE |
F4 GA | G4 F2 | D2 E2 D2- | D4 B,2 |C4 B,C | D4 D2 | D6- |1 D4 GA:|2 D6 ||
D4 FD | F4 G2 | A2 B4- | B4 c2 |d4 e2 | d4 cB | c2 d4- | d2 (3ded cA |
B2 c2 d2- | d4 (3cAF | G2 A4- | A4 FA |G4 F2 | D4 D2 | D6- | D4 dc |
B4 c2 | d4 c2 | AB- B2- B2- | B2 (3ABA GF |G4 F2 | G4 F2 | G2 A4- | A4 DE |
F4 GA | G4 F2 | D2 E2 D2- | D4 B,2 |C4 B,C | D4 D2 | D6- | D4 |]
